symbols/web/4k/materialsymbolsrounded/4k_wght300_20px.svg

<svg xmlns="http://www.w3.org/2000/svg" height="20" width="20"><path d="M11.333 12.354q.188 0 .334-.146.145-.146.145-.375v-1.416l1.542 1.75q.063.083.146.135.083.052.167.052.333 0 .468-.281.136-.281-.073-.531L12.75 9.979l1.333-1.562q.209-.25.073-.521-.135-.271-.448-.271-.104 0-.198.063-.093.062-.156.124l-1.542 1.771V8.104q0-.187-.135-.333-.135-.146-.344-.146-.229 0-.375.156-.146.157-.146.344v3.729q0 .208.136.354.135.146.385.146Zm-2.979 0q.208 0 .354-.146t.146-.375v-.708h.417q.208 0 .344-.146.135-.146.135-.375 0-.208-.146-.364-.146-.157-.354-.157h-.396V8.104q0-.187-.146-.333-.146-.146-.354-.146t-.364.135q-.157.136-.157.344v1.979H6.604V8.104q0-.187-.135-.333-.136-.146-.344-.146-.229 0-.375.146t-.146.354v2.25q0 .292.219.521.219.229.531.229h1.479v.729q0 .208.146.354t.375.146ZM4.5 17.083q-.667 0-1.125-.458-.458-.458-.458-1.125v-11q0-.667.458-1.125.458-.458 1.125-.458h11q.667 0 1.125.458.458.458.458 1.125v11q0 .667-.458 1.125-.458.458-1.125.458Zm0-1.333h11q.104 0 .177-.073t.073-.177v-11q0-.104-.073-.177T15.5 4.25h-11q-.104 0-.177.073T4.25 4.5v11q0 .104.073.177t.177.073Zm-.25-11.5v11.5-11.5Z"/></svg>

<svg xmlns="http://www.w3.org/2000/svg" height="20" width="20"><path d="M11.333 12.354Q11.521 12.354 11.667 12.208Q11.812 12.062 11.812 11.833V10.417L13.354 12.167Q13.417 12.25 13.5 12.302Q13.583 12.354 13.667 12.354Q14 12.354 14.135 12.073Q14.271 11.792 14.062 11.542L12.75 9.979L14.083 8.417Q14.292 8.167 14.156 7.896Q14.021 7.625 13.708 7.625Q13.604 7.625 13.51 7.688Q13.417 7.75 13.354 7.812L11.812 9.583V8.104Q11.812 7.917 11.677 7.771Q11.542 7.625 11.333 7.625Q11.104 7.625 10.958 7.781Q10.812 7.938 10.812 8.125V11.854Q10.812 12.062 10.948 12.208Q11.083 12.354 11.333 12.354ZM8.354 12.354Q8.562 12.354 8.708 12.208Q8.854 12.062 8.854 11.833V11.125H9.271Q9.479 11.125 9.615 10.979Q9.75 10.833 9.75 10.604Q9.75 10.396 9.604 10.24Q9.458 10.083 9.25 10.083H8.854V8.104Q8.854 7.917 8.708 7.771Q8.562 7.625 8.354 7.625Q8.146 7.625 7.99 7.76Q7.833 7.896 7.833 8.104V10.083H6.604V8.104Q6.604 7.917 6.469 7.771Q6.333 7.625 6.125 7.625Q5.896 7.625 5.75 7.771Q5.604 7.917 5.604 8.125V10.375Q5.604 10.667 5.823 10.896Q6.042 11.125 6.354 11.125H7.833V11.854Q7.833 12.062 7.979 12.208Q8.125 12.354 8.354 12.354ZM4.5 17.083Q3.833 17.083 3.375 16.625Q2.917 16.167 2.917 15.5V4.5Q2.917 3.833 3.375 3.375Q3.833 2.917 4.5 2.917H15.5Q16.167 2.917 16.625 3.375Q17.083 3.833 17.083 4.5V15.5Q17.083 16.167 16.625 16.625Q16.167 17.083 15.5 17.083ZM4.5 15.75H15.5Q15.604 15.75 15.677 15.677Q15.75 15.604 15.75 15.5V4.5Q15.75 4.396 15.677 4.323Q15.604 4.25 15.5 4.25H4.5Q4.396 4.25 4.323 4.323Q4.25 4.396 4.25 4.5V15.5Q4.25 15.604 4.323 15.677Q4.396 15.75 4.5 15.75ZM4.25 4.25Q4.25 4.25 4.25 4.323Q4.25 4.396 4.25 4.5V15.5Q4.25 15.604 4.25 15.677Q4.25 15.75 4.25 15.75Q4.25 15.75 4.25 15.677Q4.25 15.604 4.25 15.5V4.5Q4.25 4.396 4.25 4.323Q4.25 4.25 4.25 4.25Z"/></svg>
